X:1
T: The Forge
C:
R:Strathspey
Q: 128
K:Em
M:4/4
L:1/16
|:BB3 B3A G3F E3G|F3D A3D F3D A3d|BB3 B3A G3F E3G|B3e gfe^d e4-e2g2|
BB3 B3A G3F E3G|F3D A3D F3D A3d|BB3 B3A G3F E3G|B3e gfe^d e4-e2g2|
gg3 b3g a3f d3f|ee3 g3e f3^d B3f|gg3 b3g a3f d3f|B3e gfe^d e4-e2g2|
gg3 b3g a3f d3f|ee3 g3e f3^d B3f|gg3 b3g a3f d3f|B3e gfe^d e4-e2:|
